X:58
T:No Luck About The House. JBs.058
S:Jas.Blackshaw MS, 1837, N.Shropshire
A:North Shropshire
Z:T. Weatherall 2006
M:2/4
L:1/8
Q:1/4=100
R:a
K:G
e|gedB|ccce|gedB|A2Ae|gedB|ccce|dcBA|G2G:|
|:â€*â€(g/a/)|bbbg|câ€™bcâ€™a|bbbg|â€*â€a3e|bbbg|ccce|dBcA|G2G:|

